!!!COM: Skalovski, Todor
!!!CDT: b.1909
!!!OTL: National Anthem, Macedonia
!!!ENC: Davis, Matthew J.
!!Vocal Line Only
**kern
*clefG2
*k[]
*C:
*M2/4
=1-
3g
==!|:2
4cc
4g
=3
4.e
8e
=4
8.g
16g
8f
8e
=5
4e
[4d
=6
4d]
4r
=7
4.b
8cc
=8
8dd
8cc
8b
8a
=9
4g
4a
=10
4g
4f
=11
[2e
=12
8e]
8r
8.b
16cc
=13
4dd
4cc
=14
4b
4a
=15
4a
]4g
=16
4g]
8g
8g
=17
4cc
4g
=18
4cc
4dd
=19
[2ee
=20
4ee]
8.dd
16ee
=21
4ff
4ee
=22
4dd
4cc
=23
8.dd
16cc
[4b
=24
4b]
8.a
16g
=25
4b
4a
=26
!First and Second Ending
4g
4f
=27
[2e
=28
4e]
4g
==:|!29
4g
4b
=30
[2cc
=31
4cc]
==|!
*-
